X:1
T:Jura, 12.12.12.12
T:Jura, 12.12.12.12
T:Frederick Skiff Stanton, 1884
T:Public Domain Courtesy of the Cyber Hymnal™
C:Frederick Skiff Stanton, 1884
Z:Public Domain
Z:Courtesy of the Cyber Hymnal™
%%score ( 1 2 ) 3
L:1/8
Q:1/4=103
M:6/8
K:F
V:1 treble 
V:2 treble 
V:3 bass 
V:1
 [FA][FA][GB] [Ac]2 [Bd] | ([Ac]3 [FA]2) F | ([CF][CG])[FA] [GB]2 [FA] | [EG]3- [EG]2 z | %4
 [FA][FA][GB] [Ac]2 [Bd] | ([A-c]3 [FA]2) z | [CF][CF][FG] [FA]2 [EG] | F3- F2 z | %8
 [EG][CE][DF] [EG]2 [FA] | ([E-G]3 [CE]2) z | [EG][Ec][Ad] [Ge]2 [Fd] | [Ec]3- [Ec]2 z | %12
 [FA][FA][GB] [Ac]2 [Bd] | ([A-c]3 [FA]2) z | [CF][CF][FG] [FA]2 [EG] | F3- F2 |] %16
V:2
 x6 | x5 F | x6 | x6 | x6 | x6 | x6 | F3- F2 x | x6 | x6 | x6 | x6 | x6 | x6 | x6 | F3- F2 |] %16
V:3
 [F,C][F,C][F,C] [F,F]2 [F,F] | ([F,-F]3 [F,C]2) [F,A,] | ([F,A,][F,B,])[F,C] [F,C]2 [F,C] | %3
 [C,C]3- [C,C]2 z | [F,C][F,C][F,C] [F,F]2 [F,F] | ([F,-F]3 [F,C]2) z | %6
 [F,A,][F,A,][B,,D] [C,C]2 [C,B,] | [F,A,]3- [F,A,]2 z | [C,C][C,G,][C,C] [C,C]2 [C,C] | %9
 ([C,-C]3 [C,G,]2) z | [C,C][C,C][F,C] [G,C]2 [G,=B,] | [C,C]3- [C,C]2 z | %12
 [F,C][F,C][F,C] [F,F]2 [F,F] | ([F,-F]3 [F,C]2) z | [F,A,][F,A,][B,,D] [C,C]2 [C,B,] | %15
 [F,A,]3- [F,A,]2 |] %16

